src/basic/800/u1F464-profile.svg

<svg width="11" height="16" viewBox="0 0 11 16" fill="none" xmlns="http://www.w3.org/2000/svg">
<path fill-rule="evenodd" clip-rule="evenodd" d="M11,13.821c-1.17202,-1.7935 -3.19762,-2.9787 -5.50003,-2.9787c-2.30237,0 -4.32794,1.1852 -5.49997,2.9786v-1.608c1.37923,-1.4597 3.33323,-2.37055 5.49997,-2.37055c2.16677,0 4.1208,0.91085 5.50003,2.37065zM5.50001,2.99231c-1.41564,0 -2.56324,1.1476 -2.56324,2.56325c0,1.41564 1.1476,2.56324 2.56324,2.56324c1.41565,0 2.56325,-1.1476 2.56325,-2.56324c0,-1.41565 -1.1476,-2.56325 -2.56325,-2.56325zM1.93677,5.55556c0,-1.96793 1.59532,-3.56325 3.56324,-3.56325c1.96793,0 3.56325,1.59532 3.56325,3.56325c0,1.96792 -1.59532,3.56324 -3.56325,3.56324c-1.96792,0 -3.56324,-1.59532 -3.56324,-3.56324z" fill="black"/>
</svg>

<svg width="11" height="16" viewBox="0 0 11 16" fill="none" xmlns="http://www.w3.org/2000/svg">
<path fill-rule="evenodd" clip-rule="evenodd" d="M11 12.213C9.62077 10.7532 7.66674 9.84235 5.49997 9.84235C3.33323 9.84235 1.37923 10.7532 0 12.2129V13.8209C1.17203 12.0275 3.1976 10.8423 5.49997 10.8423C7.80238 10.8423 9.82798 12.0275 11 13.821V12.213ZM5.50001 2.99231C4.08437 2.99231 2.93677 4.13991 2.93677 5.55556C2.93677 6.9712 4.08437 8.1188 5.50001 8.1188C6.91566 8.1188 8.06326 6.9712 8.06326 5.55556C8.06326 4.13991 6.91566 2.99231 5.50001 2.99231ZM1.93677 5.55556C1.93677 3.58763 3.53209 1.99231 5.50001 1.99231C7.46794 1.99231 9.06326 3.58763 9.06326 5.55556C9.06326 7.52348 7.46794 9.1188 5.50001 9.1188C3.53209 9.1188 1.93677 7.52348 1.93677 5.55556Z" fill="black"/>
</svg>
